svg/fluentui-system-icons/ic_fluent_text_grammar_arrow_right_24_filled.svg

<svg width="24" height="24" viewBox="0 0 24 24" fill="none" xmlns="http://www.w3.org/2000/svg">
<path d="M3 5H21C21.5523 5 22 5.44772 22 6C22 6.51284 21.614 6.93551 21.1166 6.99327L21 7H3C2.44772 7 2 6.55228 2 6C2 5.48716 2.38604 5.06449 2.88338 5.00673L3 5ZM3 11C2.44772 11 2 10.5523 2 10C2 9.48716 2.38604 9.06449 2.88338 9.00673L3 9H21C21.5523 9 22 9.44772 22 10C22 10.5128 21.614 10.9355 21.1166 10.9933L21 11H3ZM3 15H11.4982C11.8099 14.2524 12.2573 13.5755 12.8096 13H3L2.88338 13.0067C2.38604 13.0645 2 13.4872 2 14C2 14.5523 2.44772 15 3 15ZM3 17H11.0189C11.0064 17.165 11 17.3318 11 17.5C11 18.0163 11.0602 18.5185 11.1739 19H3C2.44772 19 2 18.5523 2 18C2 17.4872 2.38604 17.0645 2.88338 17.0067L3 17ZM12 17.5C12 20.5376 14.4624 23 17.5 23C20.5376 23 23 20.5376 23 17.5C23 14.4624 20.5376 12 17.5 12C14.4624 12 12 14.4624 12 17.5ZM18.35 20.3536L18.2808 20.4114C18.0859 20.5464 17.8165 20.5271 17.6429 20.3536L17.5851 20.2843C17.4501 20.0894 17.4694 19.82 17.6429 19.6464L19.289 18L14.5 18L14.4101 17.9919C14.1769 17.9496 14 17.7455 14 17.5L14.0081 17.4101C14.0504 17.1769 14.2545 17 14.5 17L19.289 17L17.6429 15.3536L17.5851 15.2843C17.4501 15.0894 17.4694 14.82 17.6429 14.6464C17.8382 14.4512 18.1548 14.4512 18.35 14.6464L20.8657 17.1629L20.9166 17.2289L20.9505 17.2902L20.9795 17.3704L20.9945 17.4557L20.9921 17.5659L20.9732 17.6512L20.9504 17.7099L20.9063 17.7866L20.8656 17.8372L18.35 20.3536Z" fill="#212121"/>
</svg>

<svg xmlns="http://www.w3.org/2000/svg" width="24" height="24"><path d="M3 5h18a1 1 0 0 1 .117 1.993L21 7H3a1 1 0 0 1-.117-1.993L3 5Zm0 6a1 1 0 0 1-.117-1.993L3 9h18a1 1 0 0 1 .117 1.993L21 11H3Zm0 4h8.498a6.506 6.506 0 0 1 1.312-2H3l-.117.007A1 1 0 0 0 3 15Zm0 2h8.019a6.62 6.62 0 0 0 .155 2H3a1 1 0 0 1-.117-1.993L3 17Zm9 .5a5.5 5.5 0 1 0 11 0 5.5 5.5 0 0 0-11 0Zm6.35 2.854-.07.057a.5.5 0 0 1-.637-.057l-.058-.07a.5.5 0 0 1 .058-.638L19.289 18H14.5l-.09-.008A.5.5 0 0 1 14 17.5l.008-.09A.5.5 0 0 1 14.5 17h4.789l-1.646-1.646-.058-.07a.5.5 0 0 1 .765-.638l2.516 2.517.05.066.035.061.029.08.014.086-.002.11-.019.085-.023.059-.044.077-.04.05-2.516 2.517Z"/></svg>
